X:1051
T:The Frieze Breeches
R:double jig
N:"collected by F.O'Neill"
B:O'Neill's 1051
Z:Transcribed by henrik.norbeck@mailbox.swipnet.se
M:6/8
L:1/8
K:D
A/G/|FEF DED|A2d cAG|ABA GAG|F2A GEC|
FEF DED|A2d cAG|FEF GEC|DED D2:|
G|A2d d2e|fed cAG|ABA GAG|F2A GEC|
A2d d2e|fed cAG|FEF GEC|DED D2G|
A2d d2e|fed cAG|ABA Bcd|ded cAG|
fef efe|ded cAG|FEF GEC|DED D2||
F|DED dcBc|AdB cAG|ABc d2e|fed cAF|
DED dcBc|AdB cAG|FEF GEC|DED D2:|
A|d2e f2g|a2f aged|c2d efg|fdf ecA|
d2e f2g|a2f aged|faf gec|ded d2:|
d|fdf ece|ded cAG|ABA A2G|F2A GEC|
fdf ece|ded cAG|FEF GEC|DED D2:|
F/G/|A2B cBA|c2d cAG|A2d d2e|fed cAG|
A2B cBA|dcB cAG|FEF GEC|DED D2G|
A2B dc2B|c2d cAG|A2d d2e|fed cAG|
faf agec|ded dcAG|FEF GEC|DED D2||
